X:1
T:Eighmey, 77.77
T:Eighmey, 77.77
T:William Henry Pontius (1857–1937)
T:Public Domain Courtesy of the Cyber Hymnal™
C:William Henry Pontius (1857–1937)
Z:Public Domain
Z:Courtesy of the Cyber Hymnal™
%%score ( 1 2 ) ( 3 4 )
L:1/8
Q:1/4=110
M:4/4
K:Bb
V:1 treble 
V:2 treble 
V:3 bass 
V:4 bass 
V:1
 [DF]2 [DB]2 [FB]2 F2 | (dc) (BA) [FB]4 | [Ee]2 [Fd]2 [Ec]2 [DB]2 | [FA]2 (Gc) [_Ec]4 | %4
 [DF]2 [FB]2 [GB]2 [DG]2 | (dc) (Bc) [=Fd]4 | [Gd]2 [FB]2 ([Ee][Fd]) (cB) | [FB]2 [EA]2 [DB]4 |] %8
V:2
 x6 F2 | F2 F2 x4 | x8 | x2 =E2 x4 | x8 | ^F2 G2 x4 | x6 G2 | x8 |] %8
V:3
 [B,,B,]2 [B,,B,]2 [B,D]2 [B,D]2 | (B,E) (DC) [B,,D]4 | [G,B,]2 B,2 [^F,A,]2 [G,B,]2 | %3
 [C,C]2 [C,B,]2 [F,A,]4 | B,2 [B,D]2 [G,D]2 [G,B,]2 | [D,A,]2 [E,G,]2 [D,A,]4 | %6
 [G,B,]2 [_A,B,]2 B,2 ([E,C][=E,^C]) | [F,D]2 [F,C]2 [B,,B,]4 |] %8
V:4
 x8 | F,2 F,2 x4 | x8 | x8 | x8 | x8 | x4 (G,F,) x2 | x8 |] %8

